!!!OTL: Shihenxin
!!!ARE: Asia, China,ÿHunan Lingxian
!! I, 519
!!!SCT: C2182
!!!YEM: Copyright 1995, estate of Helmut Schaffrath.
**kern
*ICvox
*Ivox
*M2/4
*k[b-e-a-]
*E-:
{8cc
16cc
16g
4b-
=1
8cc
16cc
16g
4b-
=2
8g
8g
8g
8b-
=3
8cc
16cc
16g
4b-}
=4
{8b-
8b-
8ee-
8ee-
=5
8ee-
16cc
16b-
4g
=6
8b-
8b-
8ee-
8ee-
=7
8b-
16b-
16cc
4ee-}
=8
{8ee-
16ee-
16cc
4b-
=9
8b-
8b-
8ee-
16ff
16ee-
=10
4ee-
16cc
16b-
8cc
=11
2b-}
==
!!!AGN: Xiaodiao
!!!ONB: ESAC (Essen Associative Code) Database: SENGANSU
!!!AMT: simple duple
!!!AIN: vox
!!!EED: Helmut Schaffrath
!!!EEV: 1.0
*-
